public/images/home/ethereum.svg

<svg width="152" height="49" viewBox="0 0 152 49" fill="none" xmlns="http://www.w3.org/2000/svg">
<g clip-path="url(#clip0)">
<path d="M48.6315 26.6006C48.6315 26.8549 48.4218 27.0618 48.1713 27.0618H39.305C39.5263 29.2851 41.1749 31.3132 43.4935 31.3132C45.078 31.3132 46.2547 30.6983 47.1402 29.4152C47.2683 29.2378 47.4606 29.1254 47.7052 29.2319C47.8392 29.291 47.9324 29.4152 47.9557 29.5571C47.979 29.7049 47.9383 29.7877 47.8975 29.8704C47.0062 31.4492 45.2294 32.2238 43.4876 32.2238C40.505 32.2238 38.3787 29.5157 38.3787 26.6183C38.3787 23.721 40.505 21.0129 43.4876 21.0129C46.4703 21.007 48.6257 23.7092 48.6315 26.6006ZM47.6819 26.1631C47.4897 23.9398 45.812 21.9117 43.4935 21.9117C41.1749 21.9117 39.5263 23.9398 39.305 26.1631H47.6819ZM59.391 21.2317C59.6474 21.2317 59.8338 21.4564 59.8338 21.6811C59.8338 21.9412 59.6415 22.1305 59.391 22.1305H57.0143V31.597C57.0143 31.8217 56.822 32.0464 56.5715 32.0464C56.3152 32.0464 56.1288 31.8217 56.1288 31.597V22.1305H53.8452C53.5889 22.1305 53.4025 21.9353 53.4025 21.6811C53.4025 21.4564 53.5947 21.2317 53.8452 21.2317H56.1288V17.7667C56.1288 17.548 56.2744 17.3469 56.4842 17.3114C56.7813 17.2641 57.0143 17.4711 57.0143 17.7549V21.2317H59.391ZM73.8905 25.8083V31.5438C73.8905 31.804 73.6692 31.9932 73.4478 31.9932C73.1915 31.9932 73.0051 31.7981 73.0051 31.5438V25.8083C73.0051 23.8748 71.9274 21.9412 69.8011 21.9412C67.0748 21.9412 65.898 24.3596 66.0553 26.8371C66.0553 26.9022 66.0845 27.1919 66.0845 27.2215V31.5261C66.0845 31.7448 65.9388 31.9459 65.7291 31.9814C65.432 32.0287 65.199 31.8217 65.199 31.5379V12.6994C65.199 12.4747 65.3912 12.25 65.6417 12.25C65.898 12.25 66.0845 12.4747 66.0845 12.6994V23.3603C66.8476 21.9767 68.2107 21.0425 69.7953 21.0425C72.3992 21.0425 73.8905 23.3603 73.8905 25.8083ZM89.7881 26.6006C89.7881 26.8549 89.5784 27.0618 89.3279 27.0618H80.4558C80.6771 29.2851 82.3257 31.3132 84.6443 31.3132C86.2288 31.3132 87.4055 30.6983 88.291 29.4152C88.4191 29.2378 88.6114 29.1254 88.856 29.2319C88.99 29.291 89.0832 29.4152 89.1065 29.5571C89.1298 29.7049 89.0891 29.7877 89.0483 29.8704C88.157 31.4492 86.3802 32.2238 84.6384 32.2238C81.6558 32.2238 79.5295 29.5157 79.5295 26.6183C79.5295 23.721 81.6558 21.0129 84.6384 21.0129C87.6269 21.007 89.7823 23.7092 89.7881 26.6006ZM88.8327 26.1631C88.6405 23.9398 86.9628 21.9117 84.6443 21.9117C82.3257 21.9117 80.6771 23.9398 80.4558 26.1631H88.8327ZM100.67 21.6515C100.67 21.9412 100.513 22.1009 100.256 22.1364C97.6524 22.5207 96.4815 24.6789 96.4815 27.1919V31.4965C96.4815 31.7153 96.3359 31.9163 96.1262 31.9518C95.8291 31.9991 95.5961 31.7921 95.5961 31.5083V21.6988C95.5961 21.48 95.7417 21.279 95.9514 21.2435C96.2485 21.1962 96.4815 21.4032 96.4815 21.687V23.6855C97.2097 22.432 98.6719 21.2376 100.192 21.2376C100.414 21.2317 100.67 21.3973 100.67 21.6515ZM115.234 26.6006C115.234 26.8549 115.024 27.0618 114.773 27.0618H105.907C106.128 29.2851 107.777 31.3132 110.096 31.3132C111.68 31.3132 112.857 30.6983 113.742 29.4152C113.87 29.2378 114.063 29.1254 114.307 29.2319C114.441 29.291 114.535 29.4152 114.558 29.5571C114.581 29.7049 114.54 29.7877 114.5 29.8704C113.608 31.4492 111.832 32.2238 110.09 32.2238C107.107 32.2238 104.981 29.5157 104.981 26.6183C104.981 23.721 107.107 21.0129 110.09 21.0129C113.072 21.007 115.228 23.7092 115.234 26.6006ZM114.284 26.1631C114.092 23.9398 112.414 21.9117 110.096 21.9117C107.777 21.9117 106.128 23.9398 105.907 26.1631H114.284ZM129.547 21.7639V31.597C129.547 31.8572 129.325 32.0464 129.104 32.0464C128.848 32.0464 128.661 31.8513 128.661 31.597V29.7285C127.933 31.2127 126.628 32.2711 124.979 32.2711C122.346 32.2711 120.884 29.9532 120.884 27.5053V21.7402C120.884 21.5155 121.076 21.2908 121.327 21.2908C121.583 21.2908 121.77 21.5155 121.77 21.7402V27.5053C121.77 29.4388 122.847 31.3723 124.974 31.3723C127.956 31.3723 128.655 28.54 128.655 25.4121V21.7402C128.655 21.48 128.912 21.214 129.226 21.3086C129.418 21.3736 129.547 21.5628 129.547 21.7639ZM151.975 25.7728V31.5379C151.975 31.7981 151.753 31.9873 151.532 31.9873C151.275 31.9873 151.089 31.7921 151.089 31.5379V25.7728C151.089 23.8393 150.011 21.9412 147.885 21.9412C145.217 21.9412 144.203 24.8386 144.203 27.0914V31.5379C144.203 31.7981 143.982 31.9873 143.761 31.9873C143.504 31.9873 143.318 31.7921 143.318 31.5379V25.7728C143.318 23.8393 142.24 21.9412 140.114 21.9412C137.417 21.9412 136.304 24.0995 136.403 26.9672C136.403 27.0323 136.432 27.1623 136.403 27.1919V31.5261C136.403 31.7448 136.258 31.9459 136.042 31.9814C135.745 32.0287 135.512 31.8217 135.512 31.5379V21.6988C135.512 21.48 135.658 21.279 135.867 21.2435C136.164 21.1962 136.397 21.4032 136.397 21.687V23.3308C137.16 21.9472 138.524 21.0425 140.108 21.0425C141.914 21.0425 143.312 22.2014 143.883 23.9102C144.611 22.2369 146.038 21.0425 147.879 21.0425C150.483 21.0425 151.975 23.3249 151.975 25.7728Z" fill="black"/>
<g opacity="0.6">
<path opacity="0.6" d="M14.9 18.1172L0.0801544 24.9584L14.9 33.8455L29.7141 24.9584L14.9 18.1172Z" fill="#010101"/>
</g>
<g opacity="0.45">
<path opacity="0.45" d="M0.0801544 24.9583L14.9001 33.8454V0L0.0801544 24.9583Z" fill="#010101"/>
</g>
<g opacity="0.8">
<path opacity="0.8" d="M14.8997 0V33.8454L29.7139 24.9583L14.8997 0Z" fill="#010101"/>
</g>
<path opacity="0.45" d="M0.0801544 27.8083L14.9001 49.0002V36.6954L0.0801544 27.8083Z" fill="#CCCCCC"/>
<path opacity="0.8" d="M14.8997 36.6954V49.0002L29.7255 27.8083L14.8997 36.6954Z" fill="#5C5C5C"/>
</g>
<defs>
<clipPath id="clip0">
<rect width="152" height="49" fill="white"/>
</clipPath>
</defs>
</svg>

<svg xmlns="http://www.w3.org/2000/svg" width="152" height="49" fill="none" xmlns:v="https://vecta.io/nano"><g clip-path="url(#A)"><path d="M48.632 26.601c0 .254-.21.461-.46.461h-8.866c.221 2.223 1.87 4.251 4.188 4.251 1.585 0 2.761-.615 3.647-1.898.128-.177.32-.29.565-.183.134.059.227.183.251.325a.46.46 0 0 1-.058.313c-.891 1.579-2.668 2.353-4.41 2.353-2.983 0-5.109-2.708-5.109-5.605s2.126-5.605 5.109-5.605c2.983-.006 5.138 2.696 5.144 5.588zm-.95-.437c-.192-2.223-1.87-4.251-4.188-4.251s-3.967 2.028-4.188 4.251h8.377zm11.709-4.931c.256 0 .443.225.443.449 0 .26-.192.449-.443.449h-2.377v9.467c0 .225-.192.449-.443.449-.256 0-.443-.225-.443-.449v-9.466h-2.284c-.256 0-.443-.195-.443-.449 0-.225.192-.449.443-.449h2.284v-3.465c0-.219.146-.42.355-.455a.44.44 0 0 1 .53.444v3.477h2.377zm14.5 4.577v5.736c0 .26-.221.449-.443.449-.256 0-.443-.195-.443-.449v-5.736c0-1.933-1.078-3.867-3.204-3.867-2.726 0-3.903 2.418-3.746 4.896 0 .065.029.355.029.384v4.305c0 .219-.146.42-.355.455a.44.44 0 0 1-.53-.444V12.699c0-.225.192-.449.443-.449.256 0 .443.225.443.449V23.36c.763-1.384 2.126-2.318 3.711-2.318 2.604 0 4.095 2.318 4.095 4.766zm15.898.792c0 .254-.21.461-.46.461h-8.872c.221 2.223 1.87 4.251 4.189 4.251 1.585 0 2.761-.615 3.647-1.898.128-.177.32-.29.565-.183.134.059.227.183.251.325a.46.46 0 0 1-.058.313c-.891 1.579-2.668 2.353-4.41 2.353-2.983 0-5.109-2.708-5.109-5.605s2.126-5.605 5.109-5.605c2.989-.006 5.144 2.696 5.15 5.588zm-.955-.437c-.192-2.223-1.87-4.251-4.188-4.251s-3.967 2.028-4.189 4.251h8.377zm11.837-4.512a.44.44 0 0 1-.414.485c-2.604.384-3.775 2.543-3.775 5.056v4.305c0 .219-.146.42-.355.455a.44.44 0 0 1-.53-.444v-9.809c0-.219.146-.42.355-.455a.44.44 0 0 1 .53.444v1.999c.728-1.254 2.19-2.448 3.71-2.448.222-.006.478.16.478.414zm14.564 4.949c0 .254-.21.461-.461.461h-8.866c.221 2.223 1.87 4.251 4.189 4.251 1.584 0 2.761-.615 3.646-1.898.128-.177.321-.29.565-.183.134.059.228.183.251.325.023.148-.018.231-.058.313-.892 1.579-2.668 2.353-4.41 2.353-2.983 0-5.109-2.708-5.109-5.605s2.126-5.605 5.109-5.605c2.982-.006 5.138 2.696 5.144 5.588zm-.95-.437c-.192-2.223-1.87-4.251-4.188-4.251s-3.968 2.028-4.189 4.251h8.377zm15.263-4.399v9.833c0 .26-.222.449-.443.449-.256 0-.443-.195-.443-.449v-1.869c-.728 1.484-2.033 2.543-3.682 2.543-2.633 0-4.095-2.318-4.095-4.766V21.74c0-.225.192-.449.443-.449s.443.225.443.449v5.765c0 1.934 1.077 3.867 3.204 3.867 2.982 0 3.681-2.832 3.681-5.96V21.74c0-.26.257-.526.571-.432.192.065.321.254.321.455zm22.428 4.009v5.765c0 .26-.222.449-.443.449-.257 0-.443-.195-.443-.449v-5.765c0-1.933-1.078-3.832-3.204-3.832-2.668 0-3.682 2.897-3.682 5.15v4.447c0 .26-.221.449-.442.449-.257 0-.443-.195-.443-.449v-5.765c0-1.933-1.078-3.832-3.204-3.832-2.697 0-3.81 2.158-3.711 5.026 0 .065.029.195 0 .225v4.334c0 .219-.145.42-.361.455a.44.44 0 0 1-.53-.444v-9.839c0-.219.146-.42.355-.455a.44.44 0 0 1 .53.444v1.644c.763-1.384 2.127-2.288 3.711-2.288 1.806 0 3.204 1.159 3.775 2.868.728-1.673 2.155-2.868 3.996-2.868 2.604 0 4.096 2.282 4.096 4.73z" fill="#000"/><g opacity=".6"><path opacity=".6" d="M14.9 18.117L.08 24.958l14.82 8.887 14.814-8.887L14.9 18.117z" fill="#010101"/></g><g opacity=".45"><path opacity=".45" d="M.08 24.958l14.82 8.887V0L.08 24.958z" fill="#010101"/></g><g opacity=".8"><path opacity=".8" d="M14.9 0v33.845l14.814-8.887L14.9 0z" fill="#010101"/></g><path opacity=".45" d="M.08 27.808L14.9 49V36.695L.08 27.808z" fill="#ccc"/><path opacity=".8" d="M14.9 36.695V49l14.826-21.192L14.9 36.695z" fill="#5c5c5c"/></g><defs><clipPath id="A"><path fill="#fff" d="M0 0h152v49H0z"/></clipPath></defs></svg>
